src/images/Red_x.svg

<svg height="600" width="600" xmlns="http://www.w3.org/2000/svg"><path d="m3.2256306 500.60601c0-9.35229 40.5325054-56.31124 90.0722254-104.35322 49.539724-48.04198 97.282164-94.68963 106.094324-103.66145 8.81215-8.97181-.34059-61.05013-20.33945-115.72958-41.42966-113.273975-45.20616-150.940819-16.60716-165.63981 39.08859-20.0903261 92.734 9.589206 137.76388 76.218405l45.61883 67.500625 85.66798-69.919797c56.32954-45.974623 96.53965-66.450425 117.41324-59.789199 41.2992 13.179495 65.13328 64.750994 33.92345 73.402554-35.4245 9.819882-182.04094 195.368852-181.76277 230.028062.13168 16.41175 20.96416 59.97374 46.29439 96.80445 17.86624 25.97791 41.88147 46.4773 32.34817 60.568l-50.96081 75.32256c-9.88375 14.60871-46.39151-24.34008-89.63868-62.14731l-75.44134-65.95182-83.63449 82.48461c-45.99897 45.36653-88.943686 82.25082-95.43271 81.96507-6.489006-.28577-81.3790794-87.74985-81.3790794-97.10215z" fill="#ed4b41"/></svg>

<?xml version="1.0" encoding="UTF-8" standalone="no"?>
<!-- Created with Inkscape (http://www.inkscape.org/) -->
<svg
   xmlns:svg="http://www.w3.org/2000/svg"
   xmlns="http://www.w3.org/2000/svg"
   version="1.0"
   width="600"
   height="600"
   id="svg2">
  <defs
     id="defs5" />
  <path
     d="M 3.2256306,500.60601 C 3.2256306,491.25372 43.758136,444.29477 93.297856,396.25279 C 142.83758,348.21081 190.58002,301.56316 199.39218,292.59134 C 208.20433,283.61953 199.05159,231.54121 179.05273,176.86176 C 137.62307,63.587785 133.84657,25.920941 162.44557,11.22195 C 201.53416,-8.8683761 255.17957,20.811156 300.20945,87.440355 L 345.82828,154.94098 L 431.49626,85.021183 C 487.8258,39.04656 528.03591,18.570758 548.9095,25.231984 C 590.2087,38.411479 614.04278,89.982978 582.83295,98.634538 C 547.40845,108.45442 400.79201,294.00339 401.07018,328.6626 C 401.20186,345.07435 422.03434,388.63634 447.36457,425.46705 C 465.23081,451.44496 489.24604,471.94435 479.71274,486.03505 L 428.75193,561.35761 C 418.86818,575.96632 382.36042,537.01753 339.11325,499.2103 L 263.67191,433.25848 L 180.03742,515.74309 C 134.03845,561.10962 91.093734,597.99391 84.60471,597.70816 C 78.115704,597.42239 3.2256306,509.95831 3.2256306,500.60601 z"
     id="X"
     style="fill:#ed4b41;fill-opacity:1;stroke:none;stroke-width:2;stroke-linejoin:round;stroke-miterlimit:4;stroke-dasharray:none;stroke-opacity:1" />
</svg>
